symbols/web/airline_seat_flat_angled/materialsymbolsoutlined/airline_seat_flat_angled_wght300fill1_40px.svg

<svg xmlns="http://www.w3.org/2000/svg" height="40" width="40"><path d="m15.708 20.667 3.417-9.375 13.417 4.875q2.208.791 3.208 2.895 1 2.105.167 4.355L34.458 27.5Zm-11.791.791.708-1.958 28.917 10.542-.75 1.958ZM11 18.667q-1.75 0-3-1.229-1.25-1.23-1.25-3.021 0-1.75 1.25-3t3-1.25q1.792 0 3.021 1.25 1.229 1.25 1.229 3 0 1.791-1.229 3.021-1.229 1.229-3.021 1.229Z"/></svg>

<svg xmlns="http://www.w3.org/2000/svg" height="40" width="40"><path d="M15.708 20.667 19.125 11.292 32.542 16.167Q34.75 16.958 35.75 19.062Q36.75 21.167 35.917 23.417L34.458 27.5ZM3.917 21.458 4.625 19.5 33.542 30.042 32.792 32ZM11 18.667Q9.25 18.667 8 17.438Q6.75 16.208 6.75 14.417Q6.75 12.667 8 11.417Q9.25 10.167 11 10.167Q12.792 10.167 14.021 11.417Q15.25 12.667 15.25 14.417Q15.25 16.208 14.021 17.438Q12.792 18.667 11 18.667Z"/></svg>
